Sources/FrostedUI/Resources/Icons.xcassets/receptionBellFilled32.imageset/reception-bell-filled-32.svg

<svg width="32" height="32" viewBox="0 0 32 32" fill="none" xmlns="http://www.w3.org/2000/svg" data-fui-icon="true">
  <path
    d="M20.25 2C20.6642 2 21 2.33579 21 2.75C21 3.16421 20.6642 3.5 20.25 3.5H16.75V6.51465C22.1591 6.71447 25.4539 9.08325 27.3896 12.2949C29.3745 15.5881 29.8833 19.6864 29.9805 22.9785C30.0151 24.1528 29.0603 25.0828 27.917 25.083H16.75V28.5H29.25C29.6642 28.5 30 28.8358 30 29.25C30 29.6642 29.6642 30 29.25 30H2.75C2.33579 30 2 29.6642 2 29.25C2 28.8358 2.33579 28.5 2.75 28.5H15.25V25.083H4.08301C2.93974 25.0828 1.9849 24.1528 2.01953 22.9785C2.11667 19.6864 2.62554 15.5881 4.61035 12.2949C6.54612 9.08325 9.84092 6.71447 15.25 6.51465V3.5H11.75C11.3358 3.5 11 3.16421 11 2.75C11 2.33579 11.3358 2 11.75 2H20.25Z"
    fill="currentColor"
  />
</svg>

<svg xmlns="http://www.w3.org/2000/svg" width="32" height="32" fill="none" data-fui-icon="true" viewBox="0 0 32 32"><path fill="currentColor" d="M20.25 2a.75.75 0 0 1 0 1.5h-3.5v3.015c5.41.2 8.704 2.568 10.64 5.78 1.985 3.293 2.493 7.391 2.59 10.684.035 1.174-.92 2.104-2.063 2.104H16.75V28.5h12.5a.75.75 0 0 1 0 1.5H2.75a.75.75 0 0 1 0-1.5h12.5v-3.417H4.083c-1.143 0-2.098-.93-2.063-2.104.097-3.293.606-7.39 2.59-10.684 1.936-3.212 5.23-5.58 10.64-5.78V3.5h-3.5a.75.75 0 0 1 0-1.5z"/></svg>
